X: 1
T: the Glen Where the Deer Is
R: reel
Z: 2019 John Chambers <jc:trillian.mit.edu>
M: C|
L: 1/8
K: D
|:\
"D"d2ag fefg | "D"ad d/d/d "A"cdef |\
"D"d2ag fefg | G2ed "A"cA A/A/A :|
|:\
"D"fd d/d/d "A"geeg | "D"fd d/d/d "A"cAAg |\
"D"fd d/d/d "A"geeg | "D"fded "A"cA A/A/A :|
